X:1
T:Goshen (Bible Class), 65.65 D
T:Bible Class Magazine, 1860
T:Goshen (Bible Class), 65.65 D
T:Public Domain
C:Bible Class Magazine, 1860
Z:Public Domain
%%score ( 1 2 ) ( 3 4 )
L:1/8
M:4/4
K:Bb
V:1 treble 
V:2 treble 
V:3 bass 
V:4 bass 
V:1
 [DB]3 [DB] [FA]2 [EG]2 | [DF]4 [B,D]4 | [B,F]2 [Fd]2 [Gc]2 [DB]2 | [Fc]8 | %4
 [DB]3 [DB] [EA]2 [CG]2 | F4 [B,D]4 | [B,F]2 [DF]2 F2 z c x | [DB]8 | [Fc]2 [Fc]2 [Gc]2 [Fd]2 | %9
 E2 G2 F2 E2 | [Dd]2 [FB]2 [FG]2 [=Ec]2 x | z4 E4 | [DB]3 [DB] [FA]2 [EG]2 | [DF]4 [B,D]4 | %14
 [B,F]2 [DF]2 F2 z c x | [DB]2 |] %16
V:2
 x8 | x8 | x8 | x8 | x8 | x8 | x4 d3 E2 | x8 | x8 | e4 c4 | x9 | F8 | x8 | x8 | x4 d3 E2 | x2 |] %16
V:3
 [B,,B,]3 [B,,B,] [E,B,]2 [G,B,]2 | B,4 [B,,F,]4 | [D,F,]2 [B,,B,]2 [E,G,]2 [G,B,]2 | [F,A,]8 | %4
 [B,,B,]3 [B,,F,] [C,F,]2 [E,A,]2 | [D,B,]4 [B,,F,]4 | [D,B,]2 [B,,B,]2 [F,B,]2 [F,A,]2 x | %7
 [B,,B,]8 | [F,A,]2 [F,A,]2 [E,G,]2 [D,=B,]2 | C2 B,2 [F,A,]4 | [B,,B,]2 [D,B,]2 C,2 z B, x | %11
 [F,A,]8 | [B,,B,]3 [B,,B,] [E,B,]2 [G,B,]2 | B,4 [B,,F,]4 | [D,B,]2 [B,,B,]2 [F,B,]2 [F,,A,]2 x | %15
 [B,,B,]2 |] %16
V:4
 x8 | x8 | x8 | x8 | x8 | x8 | x9 | x8 | x8 | C,4 x4 | x4 C3 C,2 | x8 | x8 | x8 | x9 | x2 |] %16

